packages/foundations/assets/icons/functional/images/layout/fullscreen_16.svg

<svg width="16" height="16" viewBox="0 0 16 16" fill="none" xmlns="http://www.w3.org/2000/svg">
<g clip-path="url(#clip0_185_1327)">
<path fill-rule="evenodd" clip-rule="evenodd" d="M3.20002 9.59999C3.65002 9.59999 4.02498 9.94999 4.02498 10.4V12H5.60002C6.05002 12 6.40002 12.35 6.40002 12.8C6.40002 13.225 6.05002 13.6 5.60002 13.6H3.20002C2.77506 13.6 2.40002 13.225 2.40002 12.8V10.4C2.40002 9.94999 2.77506 9.59999 3.20002 9.59999ZM12.7751 9.62495C13.225 9.62495 13.5751 9.97503 13.5751 10.425V12.8C13.5751 13.225 13.225 13.6 12.7751 13.6H10.3751C9.92498 13.6 9.57506 13.225 9.57506 12.8C9.57506 12.35 9.92498 12 10.3751 12H11.9751V10.425C11.9751 9.97503 12.35 9.62495 12.7751 9.62495ZM12.8 2.39999C13.225 2.39999 13.6 2.77503 13.6 3.19999V5.59999C13.6 6.04999 13.225 6.39999 12.8 6.39999C12.35 6.39999 11.9751 6.04999 11.9751 5.59999V3.99999H10.4C9.95002 3.99999 9.60002 3.64999 9.60002 3.19999C9.60002 2.77503 9.95002 2.39999 10.4 2.39999H12.8ZM5.60002 2.39999C6.05002 2.39999 6.40002 2.77503 6.40002 3.19999C6.40002 3.64999 6.05002 3.99999 5.60002 3.99999H4.00002V5.59999C4.00002 6.04999 3.65002 6.39999 3.20002 6.39999C2.77506 6.39999 2.40002 6.04999 2.40002 5.59999V3.19999C2.40002 2.77503 2.77506 2.39999 3.20002 2.39999H5.60002Z" fill="#1A1C1F"/>
</g>
<defs>
<clipPath id="clip0_185_1327">
<rect width="16" height="16" fill="white"/>
</clipPath>
</defs>
</svg>

<svg xmlns="http://www.w3.org/2000/svg" width="16" height="16" fill="none"><g clip-path="url(#a)"><path fill="#1A1C1F" fill-rule="evenodd" d="M3.2 9.6c.45 0 .825.35.825.8V12H5.6c.45 0 .8.35.8.8 0 .425-.35.8-.8.8H3.2a.823.823 0 0 1-.8-.8v-2.4c0-.45.375-.8.8-.8m9.575.025c.45 0 .8.35.8.8V12.8c0 .425-.35.8-.8.8h-2.4c-.45 0-.8-.375-.8-.8 0-.45.35-.8.8-.8h1.6v-1.575c0-.45.375-.8.8-.8M12.8 2.4c.425 0 .8.375.8.8v2.4c0 .45-.375.8-.8.8a.81.81 0 0 1-.825-.8V4H10.4a.79.79 0 0 1-.8-.8c0-.425.35-.8.8-.8zm-7.2 0c.45 0 .8.375.8.8 0 .45-.35.8-.8.8H4v1.6c0 .45-.35.8-.8.8-.425 0-.8-.35-.8-.8V3.2c0-.425.375-.8.8-.8z" clip-rule="evenodd"/></g><defs><clipPath id="a"><path fill="#fff" d="M0 0h16v16H0z"/></clipPath></defs></svg>
